src/catppuccin-latte-red-cursors/zoom-out.svg

<?xml version="1.0" encoding="UTF-8" standalone="no"?>
<svg
   id="svg2"
   width="32"
   height="32"
   version="1.1"
   sodipodi:docname="zoom-out.svg"
   inkscape:version="1.1.2 (0a00cf5339, 2022-02-04)"
   xmlns:inkscape="http://www.inkscape.org/namespaces/inkscape"
   xmlns:sodipodi="http://sodipodi.sourceforge.net/DTD/sodipodi-0.dtd"
   xmlns="http://www.w3.org/2000/svg"
   xmlns:svg="http://www.w3.org/2000/svg">
  <sodipodi:namedview
     id="namedview43680"
     pagecolor="#ffffff"
     bordercolor="#666666"
     borderopacity="1.0"
     inkscape:pageshadow="2"
     inkscape:pageopacity="0.0"
     inkscape:pagecheckerboard="0"
     showgrid="false"
     inkscape:zoom="25.96875"
     inkscape:cx="16.019254"
     inkscape:cy="16.019254"
     inkscape:window-width="936"
     inkscape:window-height="1020"
     inkscape:window-x="969"
     inkscape:window-y="45"
     inkscape:window-maximized="1"
     inkscape:current-layer="svg2" />
  <defs
     id="defs4">
    <filter
       id="filter859"
       style="color-interpolation-filters:sRGB"
       width="1.096"
       height="1.096"
       x="-.05"
       y="-.05">
      <feGaussianBlur
         id="feGaussianBlur861"
         stdDeviation=".3" />
    </filter>
    <filter
       id="filter891"
       style="color-interpolation-filters:sRGB"
       width="1.1"
       height="1.093"
       x="-.05"
       y="-.05">
      <feGaussianBlur
         id="feGaussianBlur893"
         stdDeviation=".281" />
    </filter>
    <filter
       id="filter874"
       style="color-interpolation-filters:sRGB"
       width="1.123"
       height="1.117"
       x="-.06"
       y="-.06">
      <feGaussianBlur
         id="feGaussianBlur876"
         stdDeviation=".563" />
    </filter>
    <filter
       id="filter827"
       style="color-interpolation-filters:sRGB"
       width="1.1472727"
       height="1.1408696"
       x="-0.073636365"
       y="-0.070434784">
      <feGaussianBlur
         id="feGaussianBlur829"
         stdDeviation=".675" />
    </filter>
  </defs>
  <path
     id="path846"
     style="color:#000000;font-style:normal;font-variant:normal;font-weight:normal;font-stretch:normal;font-size:medium;line-height:normal;font-family:sans-serif;font-variant-ligatures:normal;font-variant-position:normal;font-variant-caps:normal;font-variant-numeric:normal;font-variant-alternates:normal;font-feature-settings:normal;text-indent:0;text-align:start;text-decoration:none;text-decoration-line:none;text-decoration-style:solid;text-decoration-color:#000000;letter-spacing:normal;word-spacing:normal;text-transform:none;writing-mode:lr-tb;direction:ltr;text-orientation:mixed;dominant-baseline:auto;baseline-shift:baseline;text-anchor:start;white-space:normal;shape-padding:0;clip-rule:nonzero;display:inline;overflow:visible;visibility:visible;opacity:0.2;isolation:auto;mix-blend-mode:normal;color-interpolation:sRGB;color-interpolation-filters:linearRGB;solid-color:#000000;solid-opacity:1;vector-effect:none;fill:#000000;fill-opacity:1;fill-rule:nonzero;stroke:none;stroke-width:2;stroke-linecap:round;stroke-linejoin:round;stroke-miterlimit:4;stroke-dasharray:none;stroke-dashoffset:0;stroke-opacity:1;color-rendering:auto;image-rendering:auto;shape-rendering:auto;text-rendering:auto;enable-background:accumulate;filter:url(#filter827)"
     d="m 14,5.5 c -4.6825757,0 -8.5,3.8174243 -8.5,8.5 0,4.682576 3.8174243,8.5 8.5,8.5 1.616272,-6.15e-4 3.141794,-0.557843 4.496094,-1.416016 l 6.58789,7.095704 A 1.0001,1.0001 0 0 0 25.816406,28.5 H 26.5 a 1.0001,1.0001 0 0 0 1,-1 V 26.765625 A 1.0001,1.0001 0 0 0 27.232422,26.085938 L 20.681641,19.03125 C 21.781907,17.569203 22.496678,15.848978 22.5,14.001953 a 1.0001,1.0001 0 0 0 0,-0.002 C 22.5,9.3174243 18.682576,5.5 14,5.5 Z" />
  <path
     id="path843"
     style="color:#000000;font-style:normal;font-variant:normal;font-weight:normal;font-stretch:normal;font-size:medium;line-height:normal;font-family:sans-serif;font-variant-ligatures:normal;font-variant-position:normal;font-variant-caps:normal;font-variant-numeric:normal;font-variant-alternates:normal;font-feature-settings:normal;text-indent:0;text-align:start;text-decoration:none;text-decoration-line:none;text-decoration-style:solid;text-decoration-color:#000000;letter-spacing:normal;word-spacing:normal;text-transform:none;writing-mode:lr-tb;direction:ltr;text-orientation:mixed;dominant-baseline:auto;baseline-shift:baseline;text-anchor:start;white-space:normal;shape-padding:0;clip-rule:nonzero;display:inline;overflow:visible;visibility:visible;opacity:1;isolation:auto;mix-blend-mode:normal;color-interpolation:sRGB;color-interpolation-filters:linearRGB;solid-color:#000000;solid-opacity:1;vector-effect:none;fill:#EFF1F5;fill-opacity:1;fill-rule:nonzero;stroke:none;stroke-width:2;stroke-linecap:round;stroke-linejoin:round;stroke-miterlimit:4;stroke-dasharray:none;stroke-dashoffset:0;stroke-opacity:1;color-rendering:auto;image-rendering:auto;shape-rendering:auto;text-rendering:auto;enable-background:accumulate"
     d="M 13.5,5 C 8.8174243,5 5,8.8174243 5,13.5 c 0,4.682576 3.8174243,8.5 8.5,8.5 1.616272,-6.15e-4 3.141794,-0.557843 4.496094,-1.416016 l 6.58789,7.095704 A 1.0001,1.0001 0 0 0 25.316406,28 H 26 a 1.0001,1.0001 0 0 0 1,-1 V 26.265625 A 1.0001,1.0001 0 0 0 26.732422,25.585938 L 20.181641,18.53125 C 21.281907,17.069203 21.996678,15.348978 22,13.501953 A 1.0001,1.0001 0 0 0 22,13.5 C 22,8.8174243 18.182576,5 13.5,5 Z" />
  <path
     id="path827"
     style="opacity:1;fill:#D20F39;fill-opacity:1;stroke:none;stroke-width:1.5;stroke-linecap:round;stroke-linejoin:round;stroke-miterlimit:4;stroke-dasharray:none;stroke-opacity:1"
     d="M 13.5,6 A 7.5,7.5 0 0 0 6,13.5 7.5,7.5 0 0 0 13.5,21 7.5,7.5 0 0 0 18.203125,19.339844 L 25.316406,27 H 26 V 26.265625 L 18.933594,18.65625 A 7.5,7.5 0 0 0 21,13.5 7.5,7.5 0 0 0 13.5,6 Z" />
  <path
     id="circle838"
     style="opacity:1;fill:#EFF1F5;fill-opacity:1;stroke:none;stroke-width:2.42857146;stroke-linecap:round;stroke-linejoin:round;stroke-miterlimit:4;stroke-dasharray:none;stroke-dashoffset:0;stroke-opacity:1;paint-order:normal"
     d="m 10,13 v 1 h 7 v -1 z" />
</svg>

<svg xmlns="http://www.w3.org/2000/svg" width="32" height="32">
    <defs>
        <filter id="a" width="1.147" height="1.141" x="-.074" y="-.07" style="color-interpolation-filters:sRGB">
            <feGaussianBlur stdDeviation=".675"/>
        </filter>
    </defs>
    <path d="M14 5.5c-4.683 0-8.5 3.817-8.5 8.5s3.817 8.5 8.5 8.5c1.616 0 3.142-.558 4.496-1.416l6.588 7.096a1 1 0 0 0 .732.32h.684a1 1 0 0 0 1-1v-.734a1 1 0 0 0-.268-.68l-6.55-7.055c1.1-1.462 1.815-3.182 1.818-5.029V14c0-4.683-3.817-8.5-8.5-8.5" style="color:#000;font-style:normal;font-variant:normal;font-weight:400;font-stretch:normal;font-size:medium;line-height:normal;font-family:sans-serif;font-variant-ligatures:normal;font-variant-position:normal;font-variant-caps:normal;font-variant-numeric:normal;font-variant-alternates:normal;font-feature-settings:normal;text-indent:0;text-align:start;text-decoration:none;text-decoration-line:none;text-decoration-style:solid;text-decoration-color:#000;letter-spacing:normal;word-spacing:normal;text-transform:none;writing-mode:lr-tb;direction:ltr;text-orientation:mixed;dominant-baseline:auto;baseline-shift:baseline;text-anchor:start;white-space:normal;shape-padding:0;clip-rule:nonzero;display:inline;overflow:visible;visibility:visible;opacity:.2;isolation:auto;mix-blend-mode:normal;color-interpolation:sRGB;color-interpolation-filters:linearRGB;solid-color:#000;solid-opacity:1;vector-effect:none;fill:#000;fill-opacity:1;fill-rule:nonzero;stroke:none;stroke-width:2;stroke-linecap:round;stroke-linejoin:round;stroke-miterlimit:4;stroke-dasharray:none;stroke-dashoffset:0;stroke-opacity:1;color-rendering:auto;image-rendering:auto;shape-rendering:auto;text-rendering:auto;enable-background:accumulate;filter:url(#a)"/>
    <path d="M13.5 5C8.817 5 5 8.817 5 13.5S8.817 22 13.5 22c1.616 0 3.142-.558 4.496-1.416l6.588 7.096a1 1 0 0 0 .732.32H26a1 1 0 0 0 1-1v-.734a1 1 0 0 0-.268-.68l-6.55-7.055c1.1-1.462 1.815-3.182 1.818-5.029V13.5C22 8.817 18.183 5 13.5 5" style="color:#000;font-style:normal;font-variant:normal;font-weight:400;font-stretch:normal;font-size:medium;line-height:normal;font-family:sans-serif;font-variant-ligatures:normal;font-variant-position:normal;font-variant-caps:normal;font-variant-numeric:normal;font-variant-alternates:normal;font-feature-settings:normal;text-indent:0;text-align:start;text-decoration:none;text-decoration-line:none;text-decoration-style:solid;text-decoration-color:#000;letter-spacing:normal;word-spacing:normal;text-transform:none;writing-mode:lr-tb;direction:ltr;text-orientation:mixed;dominant-baseline:auto;baseline-shift:baseline;text-anchor:start;white-space:normal;shape-padding:0;clip-rule:nonzero;display:inline;overflow:visible;visibility:visible;opacity:1;isolation:auto;mix-blend-mode:normal;color-interpolation:sRGB;color-interpolation-filters:linearRGB;solid-color:#000;solid-opacity:1;vector-effect:none;fill:#eff1f5;fill-opacity:1;fill-rule:nonzero;stroke:none;stroke-width:2;stroke-linecap:round;stroke-linejoin:round;stroke-miterlimit:4;stroke-dasharray:none;stroke-dashoffset:0;stroke-opacity:1;color-rendering:auto;image-rendering:auto;shape-rendering:auto;text-rendering:auto;enable-background:accumulate"/>
    <path d="M13.5 6A7.5 7.5 0 0 0 6 13.5a7.5 7.5 0 0 0 7.5 7.5 7.5 7.5 0 0 0 4.703-1.66L25.316 27H26v-.734l-7.066-7.61A7.5 7.5 0 0 0 21 13.5 7.5 7.5 0 0 0 13.5 6" style="opacity:1;fill:#d20f39;fill-opacity:1;stroke:none;stroke-width:1.5;stroke-linecap:round;stroke-linejoin:round;stroke-miterlimit:4;stroke-dasharray:none;stroke-opacity:1"/>
    <path d="M10 13v1h7v-1z" style="opacity:1;fill:#eff1f5;fill-opacity:1;stroke:none;stroke-width:2.42857146;stroke-linecap:round;stroke-linejoin:round;stroke-miterlimit:4;stroke-dasharray:none;stroke-dashoffset:0;stroke-opacity:1;paint-order:normal"/>
</svg>
